X:1
T:James Gibb editions
T:Occhio non fu - Azzaiolo
T:#
%%score [ 1 2 3 4 ]
L:1/8
Q:1/4=80
M:6/8
K:C
V:1 treble nm="Soprano I" snm="S I"
V:2 treble nm="Soprano II" snm="S II"
V:3 treble nm="Alto" snm="A"
V:4 treble-8 nm="Tenor" snm="T"
V:1
"^Occhio non fu""^Filippo Azzaiolo\n(C16th)" e3 e2 e | d3- d2 g | ^f2 g- ggf |1 g3 g3 :|2 %4
w: Oc- chio non|fù * giam-|mai che * la- gri-|mas- se,|
 g3 g2 g |: f2 d e2 c | d2 d c2 c | (B>cd c2 B) |1 c>BA/B/ ccg :|2 c6 |: e3 e2 e | d3 d2 g | %12
w: mas- se, Co-|sì ra- gion di|do- glia di mo-|ri\- * * * *|re, fa la li le la. Co\-|re.|O quan- to|gli~~oc- chi do-|
 ^f2 g- ggf |1 g3 g3 :|2 g3 g2 g |: f2 d e2 c | d2 d c2 c | (B>c)d (c B2) |1 c3- c2 g :|2 c6 || %20
w: len- ti * del mio|co- re.|co- re. Da|pò che mor- te|m'ha ro- bà il|mi\- * o~~a- mo\- *|re, * da|re|
 z6 | gg^f g2 g | z6 | gg^f g3 | g2 g f2 d | e2 d ccB | c2 g f2 d | e2 d ccB | c6 |: _e3 e2 e | %30
w: |O bel- l'a- mo- re,||O fin' a- mo-|re che tien' il|mon- do in- na- mo-|rà, che tien' il|mon- do in- na- mo-|rà,|Tu sei co-|
 d3 d2 d | c2 c- ccB | c3 c3 :| f3 f2 f | f6 | e6 |] %36
w: lon- na di|quan- t'a\- * mor fu|ma- i,|a- mor fu|ma-|i.|
V:2
 c3 c2 c | _B3- B2 B | d2 d- dcA |1 _B3 B3 :|2 _B3 B2 c |: A2 _B G2 A | F2 _B A2 F | %7
w: Oc- chio non|fù * giam-|mai che * la- gri-|mas- se,|mas- se Co-|sì ra- gion di|do- glia di mo-|
 (G3/2F/4G/4A F G2) |1 G3- G2 c :|2 G6 |: c3 c2 c | _B3 B2 B | d2 d- dcA |1 _B3 B3 :|2 _B3 B2 c |: %15
w: ri\- * * * * *|re, * Co\-|re.|O quan- to|gli~~oc- chi do-|len- ti * del mio|co- re.|co- re. Da|
 A2 _B G2 A | F2 _B A2 F | (G3/2F/4G/4A) F G2 |1 G>FE/F/ GGc :|2 G6 || z6 | GAA G2 G | z6 | %23
w: pò che mor- te|m'ha ro- bà il|mi\- * * * o~~a- mo-|re fa la li le la. da|re||O bel- l'a- mo- re,||
 GAA G3 | G2 c A2 _B | G2 A AGG | G2 c A2 _B | G2 A AGG | G6 |: _B3 B2 B | _B3 B2 B | G2 A- AGG | %32
w: O fin' a- mo-|re che tien' il|mon- do in- na- mo-|rà, che tien' il|mon- do in- na- mo-|rà,|Tu sei co-|lon- na di|quan- t'a\- * mor fu|
 G3 G3 :| c3 c2 c | c6 | c6 |] %36
w: ma- i,|a- mor fu|ma-|i.|
V:3
 G3 G2 G | G3- G2 G | A2 B- BAA |1 G3 G3 :|2 G3 G2 E |: F2 G E2 F | D2 G E2 A | %7
w: Oc- chio non|fù * giam-|mai che * la- gri-|mas- se,|mas- se Co-|sì ra- gion di|do- glia di mo-|
 (D>EF/E/ D/C/ D2) |1 C3- C2 E :|2 E6 |: G3 G2 G | G3 G2 G | A2 B- BAA |1 G3 G3 :|2 G3 G2 E |: %15
w: ri\- * * * * * *|re, * Co\-|re.|O quan- to|gli~~oc- chi do-|len- ti * del mio|co- re.|co- re. Da|
 F2 G E2 F | D2 G E2 A | (D>E F/E/) (D/C/) D2 |1 C3- C2 E :|2 C6 || EEE D2 D | z6 | EEE D2 D | z6 | %24
w: pò che mor- te|m'ha ro- bà il|mi\- * * * o~~a\- * mo-|re * da|re|O ca- ro~~a- mo- re,||O dol- ce~a- mo- re,||
 z2 E F2 G | E2 F FDD | C2 E F2 G | E2 F FDD | E6 |: G3 G2 G | F3 F2 F | E2 F- FDD | E3 E3 :| %33
w: che tien' il|mon- do in- na- mo-|rà, che tien' il|mon- do in- na- mo-|rà,|Tu sei co-|lon- na di|quan- t'a\- * mor fu|ma- i,|
 A3 A2 A | A6 | G6 |] %36
w: a- mor fu|ma-|i.|
V:4
 c3 c2 c | G3- G2 G | d2 B- Bcd |1 G3 G3 :|2 G3 G2 c |: d2 _B c2 A | _B2 G A2 F | (G2 F A G2) |1 %8
w: Oc- chio non|fù * giam-|mai che * la- gri-|mas- se,|mas- se Co-|sì ra- gion di|do- glia di mo-|ri\- * * *|
 C3- C2 c :|2 C6 |: c3 c2 c | G3 G2 G | d2 B- Bcd |1 G3 G3 :|2 G3 G2 c |: d2 _B c2 A | _B2 G A2 F | %17
w: re, * Co\-|re.|O quan- to|gli~~oc- chi do-|len- ti * del mio|co- re.|co- re. Da|pò che mor- te|m'ha ro- bà il|
 (G2 F) A G2 |1 C3- C2 c :|2 C6 || ccc G2 G | z6 | ccc G2 G | z6 | z2 c d2 _B | c2 F FGG | %26
w: mi\- * o~~a- mo-|re * da|re|O ca- ro~~a- mo- re,||O dol- ce~~a- mo- re,||che tien' il|mon- do in- na- mo-|
 c2 c d2 _B | c2 F FGG | c6 |: _E3 E2 E | _B3 B2 B | c2 F- FGG | c3 c3 :| F3 F2 F | F6 | C6 |] %36
w: rà, che tien' il|mon- do in- na- mo-|rà,|Tu sei co-|lon- na di|quan- t'a\- * mor fu|ma- i,|a- mor fu|ma-|i.|

